src/shared/assets/images/landing/img-contact-mail.svg

<svg width="451" height="304" viewBox="0 0 451 304" fill="none" xmlns="http://www.w3.org/2000/svg">
<g filter="url(#filter0_d)">
<path d="M220.95 18.6381L79.7239 83.6323L60.5813 88.916V112.882C60.3842 116.222 63.1031 119.594 68.7104 122.137L186.281 175.546C197.068 180.438 214.718 180.437 225.504 175.545L382.39 104.385C388.172 101.762 390.855 98.2447 390.437 94.7921L390.481 94.8119V70.3161L368.488 80.2915L276.103 18.6381C265.317 13.7464 231.736 13.7458 220.95 18.6381Z" fill="#90CAF9"/>
</g>
<path d="M225.497 8.89503L68.6108 80.0551C57.8249 84.9473 57.9232 92.9079 68.7096 97.7996L186.281 151.208C197.067 156.1 214.717 156.1 225.503 151.207L382.389 80.0472C393.175 75.155 393.175 67.1499 382.388 62.2582L264.719 8.89405C253.933 4.00234 236.283 4.00277 225.497 8.89503ZM264.72 26.6831L235.306 84.4982L107.834 97.8431L88.2223 88.9491L215.694 75.6041L245.109 17.7891L264.72 26.6831Z" fill="#2196F3"/>
<path d="M225.497 8.89503L68.6108 80.0551C57.8249 84.9473 57.9232 92.9079 68.7096 97.7996L186.281 151.208C197.067 156.1 214.717 156.1 225.503 151.207L382.389 80.0472C393.175 75.155 393.175 67.1499 382.388 62.2582L264.719 8.89405C253.933 4.00234 236.283 4.00277 225.497 8.89503ZM264.72 26.6831L235.306 84.4982L107.834 97.8431L88.2223 88.9491L215.694 75.6041L245.109 17.7891L264.72 26.6831Z" fill="url(#paint0_linear)"/>
<path d="M239.24 85.8807L268.654 28.0656L249.043 19.1716L219.628 76.9867L92.1562 90.3317L111.768 99.2257L239.24 85.8807Z" fill="#E3F2FD"/>
<defs>
<filter id="filter0_d" x="0.571289" y="14.9691" width="449.91" height="288.245" filterUnits="userSpaceOnUse" color-interpolation-filters="sRGB">
<feFlood flood-opacity="0" result="BackgroundImageFix"/>
<feColorMatrix in="SourceAlpha" type="matrix" values="0 0 0 0 0 0 0 0 0 0 0 0 0 0 0 0 0 0 127 0"/>
<feOffset dy="64"/>
<feGaussianBlur stdDeviation="30"/>
<feColorMatrix type="matrix" values="0 0 0 0 0.0823529 0 0 0 0 0.396079 0 0 0 0 0.752941 0 0 0 0.27 0"/>
<feBlend mode="normal" in2="BackgroundImageFix" result="effect1_dropShadow"/>
<feBlend mode="normal" in="SourceGraphic" in2="effect1_dropShadow" result="shape"/>
</filter>
<linearGradient id="paint0_linear" x1="59.0862" y1="80.0511" x2="232.865" y2="228.078" gradientUnits="userSpaceOnUse">
<stop stop-color="#6DBAF7"/>
<stop offset="1" stop-color="white" stop-opacity="0"/>
</linearGradient>
</defs>
</svg>

<svg width="451" height="304" fill="none" xmlns="http://www.w3.org/2000/svg"><g filter="url(#a)"><path d="M220.95 18.638 79.724 83.632 60.58 88.916v23.966c-.197 3.34 2.522 6.712 8.13 9.255l117.57 53.409c10.787 4.892 28.437 4.891 39.223-.001l156.886-71.16c5.782-2.623 8.465-6.14 8.047-9.593l.044.02V70.316l-21.993 9.975-92.385-61.653c-10.786-4.892-44.367-4.892-55.153 0Z" fill="#90CAF9"/></g><path d="M225.497 8.895 68.611 80.055c-10.786 4.892-10.688 12.853.099 17.745l117.571 53.408c10.786 4.892 28.436 4.892 39.222-.001l156.886-71.16c10.786-4.892 10.786-12.897-.001-17.789L264.719 8.894c-10.786-4.892-28.436-4.891-39.222.001Zm39.223 17.788-29.414 57.815-127.472 13.345-19.612-8.894 127.472-13.345 29.415-57.815 19.611 8.894Z" fill="#2196F3"/><path d="M225.497 8.895 68.611 80.055c-10.786 4.892-10.688 12.853.099 17.745l117.571 53.408c10.786 4.892 28.436 4.892 39.222-.001l156.886-71.16c10.786-4.892 10.786-12.897-.001-17.789L264.719 8.894c-10.786-4.892-28.436-4.891-39.222.001Zm39.223 17.788-29.414 57.815-127.472 13.345-19.612-8.894 127.472-13.345 29.415-57.815 19.611 8.894Z" fill="url(#b)"/><path d="m239.24 85.88 29.414-57.814-19.611-8.894-29.415 57.815L92.156 90.332l19.612 8.894L239.24 85.88Z" fill="#E3F2FD"/><defs><linearGradient id="b" x1="59.086" y1="80.051" x2="232.865" y2="228.078" gradientUnits="userSpaceOnUse"><stop stop-color="#6DBAF7"/><stop offset="1" stop-color="#fff" stop-opacity="0"/></linearGradient><filter id="a" x=".571" y="14.969" width="449.91" height="288.245" filterUnits="userSpaceOnUse" color-interpolation-filters="sRGB"><feFlood flood-opacity="0" result="BackgroundImageFix"/><feColorMatrix in="SourceAlpha" values="0 0 0 0 0 0 0 0 0 0 0 0 0 0 0 0 0 0 127 0"/><feOffset dy="64"/><feGaussianBlur stdDeviation="30"/><feColorMatrix values="0 0 0 0 0.0823529 0 0 0 0 0.396079 0 0 0 0 0.752941 0 0 0 0.27 0"/><feBlend in2="BackgroundImageFix" result="effect1_dropShadow"/><feBlend in="SourceGraphic" in2="effect1_dropShadow" result="shape"/></filter></defs></svg>
